X: 54
T: Creek’s All Muddy and the Pond’s All Dry
B: canberra pickers and fiddlers
B: old time tunes update
B: tunes
M:2/2
L:1/8
Q: 1/2=100
K:G
V:1 
[G,2D2]e2d2ed|Bded d3d|dedB A2G2 |EGGA G2 ((3GFE)|
[G,2D2]e2d2ed|Bded d4|dedB A2G2 |EGGA G4||
|:[D2_B2][DB]G A2 GA|[D_B]A[DB]A G2 AG|[D_B]ABA BdBG|EGGA G4:|% abcbook-tune_id 67a7d9ec808890b9d57ef3dc
% abcbook-tune_id 67a7d9ec808890b9d57ef3dc
% abcbook-tune_composer_id 
% abcbook-link-0 https://www.youtube.com/watch?v=7Ip6vm3twJU
% abcbook-link-title-0 Creek&#39;s All Muddy and the Pond&#39;s All Dry
% abcbook-boost 0
% abcbook-difficulty 0
% abcbook-tags old time tunes
% abcbook-tablature 
% abcbook-transpose 2
% abcbook-tuning AEAE
% abcbook-lastupdated 1739071800710
% abcbook-src-url 
% abcbook-soundfonts 
% abcbook-repeats 1
%%MIDI transpose 2


